Newaita-dark/apps/32/preferences-desktop-notification-bell.svg

<svg height="32" viewBox="0 0 32 32" width="32" xmlns="http://www.w3.org/2000/svg" xmlns:xlink="http://www.w3.org/1999/xlink"><linearGradient id="a"><stop offset="0" stop-opacity=".313726"/><stop offset=".222222" stop-opacity=".27451"/><stop offset="1" stop-opacity="0"/></linearGradient><radialGradient id="b" cx="450.908936" cy="189.579361" gradientTransform="matrix(.00000017 -.0781325 -.140638 -.0000001 42.538586 63.59533)" gradientUnits="userSpaceOnUse" r="21.166656" xlink:href="#a"/><radialGradient id="c" cx="450.908936" cy="189.579361" gradientTransform="matrix(-.00000017 .0781325 .140638 .0000001 -10.785555 -7.527481)" gradientUnits="userSpaceOnUse" r="21.166656" xlink:href="#a"/><radialGradient id="d" cx="450.908936" cy="189.579361" gradientTransform="matrix(-.00000017 -.0781325 .140638 -.0000001 -10.785555 63.59533)" gradientUnits="userSpaceOnUse" r="21.166656" xlink:href="#a"/><radialGradient id="e" cx="450.908936" cy="189.579361" gradientTransform="matrix(.00000017 .0781325 -.140638 .0000001 42.538584 -7.527481)" gradientUnits="userSpaceOnUse" r="21.166656" xlink:href="#a"/><linearGradient id="f" gradientTransform="matrix(.0133601 0 0 .0499487 12.465382 16.636709)" gradientUnits="userSpaceOnUse" x1="255.322968" x2="255.323044" y1="228.178589" y2="254.666656"><stop offset="0" stop-opacity=".27451"/><stop offset="1" stop-opacity="0"/></linearGradient><linearGradient id="g"><stop offset="0" stop-color="#ffa726"/><stop offset="1" stop-color="#ffb74d"/></linearGradient><linearGradient id="h" gradientUnits="userSpaceOnUse" x1="17.19956699994" x2="17.19956699994" xlink:href="#g" y1="25.38784700003" y2="28.033934"/><linearGradient id="i" gradientUnits="userSpaceOnUse" x1="15.21500250003" x2="15.21500250003" xlink:href="#g" y1="6.86523499997" y2="2.89610500006"/><linearGradient id="j" gradientUnits="userSpaceOnUse" x1="15.87648" x2="15.87648" xlink:href="#g" y1="28.03386419623" y2="2.89610370009"/><path d="m16.207031 28.035156h2.644531v-1.324218h-2.644531zm0 0" fill="url(#b)"/><path d="m15.546875 28.035156h-2.648437v1.320313h2.648437zm0 0" fill="url(#c)"/><path d="m15.546875 28.035156h-2.648437v-1.324218h2.648437zm0 0" fill="url(#d)"/><path d="m16.207031 28.035156h2.644531v1.320313h-2.644531zm0 0" fill="url(#e)"/><path d="m15.546875 28.035156h.660156v1.320313h-.660156zm0 0" fill="url(#f)"/><path d="m15.875 22.742188c1.464844 0 2.648438 1.183593 2.648438 2.644531 0 1.460937-1.183594 2.648437-2.648438 2.648437-1.460938 0-2.644531-1.1875-2.644531-2.648437 0-1.460938 1.183593-2.644531 2.644531-2.644531zm0 0" fill="url(#h)"/><path d="m13.242188 25.140625c-.007813.082031-.011719.164063-.011719.246094 0 1.46875 1.179687 2.648437 2.644531 2.648437 1.46875 0 2.648438-1.179687 2.648438-2.648437 0-.082031-.003907-.164063-.011719-.246094-.125 1.347656-1.253907 2.398437-2.636719 2.398437-1.378906 0-2.507812-1.050781-2.632812-2.398437zm0 0" fill-opacity=".235294"/><path d="m253.975747 148.840255c23.435262 0 42.370953 18.935692 42.370953 42.30846s-18.935691 42.370954-42.370953 42.370954c-23.372768 0-42.30846-18.998186-42.30846-42.370954s18.935692-42.30846 42.30846-42.30846zm0 0" fill="none" stroke="#212121" stroke-linecap="round" stroke-linejoin="round" stroke-width="3" transform="matrix(.062506 0 0 .062506 0 13.438783)"/><path d="m15.875 2.894531c.730469 0 1.324219.59375 1.324219 1.324219v1.324219c0 .730469-.59375 1.324219-1.324219 1.324219s-1.320312-.59375-1.320312-1.324219v-1.324219c0-.730469.589843-1.324219 1.320312-1.324219zm0 0" fill="url(#i)"/><path d="m15.875 2.894531c-.730469 0-1.320312.589844-1.320312 1.324219v.496094c0-.734375.589843-1.324219 1.320312-1.324219.734375 0 1.324219.589844 1.324219 1.324219v-.496094c0-.734375-.589844-1.324219-1.324219-1.324219zm0 0" fill="#fff" fill-opacity=".392157"/><path d="m253.975747-168.691922c11.686384 0 21.185476 9.499093 21.185476 21.185477v21.185477c0 11.686384-9.499092 21.185476-21.185476 21.185476s-21.122983-9.499092-21.122983-21.185476v-21.185477c0-11.686384 9.436599-21.185477 21.122983-21.185477zm0 0" fill="none" stroke="#212121" stroke-linecap="round" stroke-linejoin="round" stroke-width="3" transform="matrix(.062506 0 0 .062506 0 13.438783)"/><path d="m15.875 4.21875c-4.394531 0-7.9375 3.539062-7.9375 7.9375v7.609375l-2.417969 3.628906c-.582031.875.042969 2.046875 1.097657 2.046875h18.519531c1.050781 0 1.679687-1.171875 1.097656-2.046875l-2.417969-3.628906v-7.609375c0-4.398438-3.542968-7.9375-7.941406-7.9375zm0 0" fill="url(#j)"/><path d="m15.875 4.21875c-4.394531 0-7.9375 3.539062-7.9375 7.9375v.332031c0-4.398437 3.542969-7.9375 7.9375-7.9375 4.398438 0 7.941406 3.539063 7.941406 7.9375v-.332031c0-4.398438-3.542968-7.9375-7.941406-7.9375zm-7.9375 15.546875-2.417969 3.628906c-.1875.28125-.25.59375-.210937.890625.023437-.191406.09375-.382812.210937-.5625l2.417969-3.628906zm15.878906 0v.328125l2.417969 3.628906c.117187.179688.1875.371094.210937.5625.039063-.296875-.023437-.609375-.210937-.890625zm0 0" fill="#fff" fill-opacity=".392157"/><path d="m5.308594 23.953125c-.097656.746094.46875 1.488281 1.308594 1.488281h18.519531c.835937 0 1.40625-.742187 1.308593-1.488281-.078124.621094-.597656 1.15625-1.308593 1.15625h-18.519531c-.714844 0-1.230469-.535156-1.308594-1.15625zm0 0" fill-opacity=".235294"/><path d="m959.908384 255.093763c-265.72267 0-479.954192 213.995324-479.954192 479.954192v460.113566l-146.206518 219.427876c-35.193492 52.908336 2.598177 123.767715 66.371618 123.767715h1119.814382c63.537243 0 101.565109-70.859379 66.371618-123.767715l-146.206518-219.427876v-460.113566c0-265.958868-214.231522-479.954192-480.19039-479.954192zm0 0" fill="none" stroke="#212121" stroke-linecap="round" stroke-linejoin="round" stroke-width="11.338583" transform="scale(.016538)"/><path d="m13.234375 25.550781c.007813.113281.023437.222657.042969.332031h5.199218c.019532-.109374.035157-.21875.039063-.332031zm0 0" fill-opacity=".235294"/><path d="m13.429688 6.699219c.472656.273437.414062 1.265625-.132813 2.214843-.550781.949219-1.378906 1.496094-1.851563 1.222657-.476562-.273438-.417968-1.265625.132813-2.214844.546875-.949219 1.375-1.496094 1.851563-1.222656zm0 0" fill="#fff" fill-opacity=".196078"/></svg>

<?xml version="1.0" encoding="UTF-8"?>
<svg xmlns="http://www.w3.org/2000/svg" xmlns:xlink="http://www.w3.org/1999/xlink" width="32px" height="32px" viewBox="0 0 32 32" version="1.1">
<defs>
<radialGradient id="radial0" gradientUnits="userSpaceOnUse" cx="450.908936" cy="189.579361" fx="450.908936" fy="189.579361" r="21.166656" gradientTransform="matrix(0.00000017417,-0.0781325,-0.140638,-0.000000101539,42.538586,63.59533)">
<stop offset="0" style="stop-color:rgb(0%,0%,0%);stop-opacity:0.313726;"/>
<stop offset="0.222222" style="stop-color:rgb(0%,0%,0%);stop-opacity:0.27451;"/>
<stop offset="1" style="stop-color:rgb(0%,0%,0%);stop-opacity:0;"/>
</radialGradient>
<radialGradient id="radial1" gradientUnits="userSpaceOnUse" cx="450.908936" cy="189.579361" fx="450.908936" fy="189.579361" r="21.166656" gradientTransform="matrix(-0.00000017417,0.0781325,0.140638,0.000000101539,-10.785555,-7.527481)">
<stop offset="0" style="stop-color:rgb(0%,0%,0%);stop-opacity:0.313726;"/>
<stop offset="0.222222" style="stop-color:rgb(0%,0%,0%);stop-opacity:0.27451;"/>
<stop offset="1" style="stop-color:rgb(0%,0%,0%);stop-opacity:0;"/>
</radialGradient>
<radialGradient id="radial2" gradientUnits="userSpaceOnUse" cx="450.908936" cy="189.579361" fx="450.908936" fy="189.579361" r="21.166656" gradientTransform="matrix(-0.00000017417,-0.0781325,0.140638,-0.000000101539,-10.785555,63.59533)">
<stop offset="0" style="stop-color:rgb(0%,0%,0%);stop-opacity:0.313726;"/>
<stop offset="0.222222" style="stop-color:rgb(0%,0%,0%);stop-opacity:0.27451;"/>
<stop offset="1" style="stop-color:rgb(0%,0%,0%);stop-opacity:0;"/>
</radialGradient>
<radialGradient id="radial3" gradientUnits="userSpaceOnUse" cx="450.908936" cy="189.579361" fx="450.908936" fy="189.579361" r="21.166656" gradientTransform="matrix(0.00000017417,0.0781325,-0.140638,0.000000101539,42.538584,-7.527481)">
<stop offset="0" style="stop-color:rgb(0%,0%,0%);stop-opacity:0.313726;"/>
<stop offset="0.222222" style="stop-color:rgb(0%,0%,0%);stop-opacity:0.27451;"/>
<stop offset="1" style="stop-color:rgb(0%,0%,0%);stop-opacity:0;"/>
</radialGradient>
<linearGradient id="linear0" gradientUnits="userSpaceOnUse" x1="255.322968" y1="228.178589" x2="255.323044" y2="254.666656" gradientTransform="matrix(0.0133601,0,0,0.0499487,12.465382,16.636709)">
<stop offset="0" style="stop-color:rgb(0%,0%,0%);stop-opacity:0.27451;"/>
<stop offset="1" style="stop-color:rgb(0%,0%,0%);stop-opacity:0;"/>
</linearGradient>
<linearGradient id="linear1" gradientUnits="userSpaceOnUse" x1="275.166656" y1="191.166672" x2="275.166656" y2="233.5" gradientTransform="matrix(0.062506,0,0,0.062506,0,13.438783)">
<stop offset="0" style="stop-color:rgb(100%,65.490198%,14.901961%);stop-opacity:1;"/>
<stop offset="1" style="stop-color:rgb(100%,71.764708%,30.19608%);stop-opacity:1;"/>
</linearGradient>
<linearGradient id="linear2" gradientUnits="userSpaceOnUse" x1="243.416672" y1="-105.166672" x2="243.416672" y2="-168.666656" gradientTransform="matrix(0.062506,0,0,0.062506,0,13.438783)">
<stop offset="0" style="stop-color:rgb(100%,65.490198%,14.901961%);stop-opacity:1;"/>
<stop offset="1" style="stop-color:rgb(100%,71.764708%,30.19608%);stop-opacity:1;"/>
</linearGradient>
<linearGradient id="linear3" gradientUnits="userSpaceOnUse" x1="960" y1="1695.118164" x2="960" y2="175.118134" gradientTransform="matrix(0.016538,0,0,0.016538,0,0)">
<stop offset="0" style="stop-color:rgb(100%,65.490198%,14.901961%);stop-opacity:1;"/>
<stop offset="1" style="stop-color:rgb(100%,71.764708%,30.19608%);stop-opacity:1;"/>
</linearGradient>
</defs>
<g id="surface1">
<path style=" stroke:none;fill-rule:nonzero;fill:url(#radial0);" d="M 16.207031 28.035156 L 18.851562 28.035156 L 18.851562 26.710938 L 16.207031 26.710938 Z M 16.207031 28.035156 "/>
<path style=" stroke:none;fill-rule:nonzero;fill:url(#radial1);" d="M 15.546875 28.035156 L 12.898438 28.035156 L 12.898438 29.355469 L 15.546875 29.355469 Z M 15.546875 28.035156 "/>
<path style=" stroke:none;fill-rule:nonzero;fill:url(#radial2);" d="M 15.546875 28.035156 L 12.898438 28.035156 L 12.898438 26.710938 L 15.546875 26.710938 Z M 15.546875 28.035156 "/>
<path style=" stroke:none;fill-rule:nonzero;fill:url(#radial3);" d="M 16.207031 28.035156 L 18.851562 28.035156 L 18.851562 29.355469 L 16.207031 29.355469 Z M 16.207031 28.035156 "/>
<path style=" stroke:none;fill-rule:nonzero;fill:url(#linear0);" d="M 15.546875 28.035156 L 16.207031 28.035156 L 16.207031 29.355469 L 15.546875 29.355469 Z M 15.546875 28.035156 "/>
<path style=" stroke:none;fill-rule:nonzero;fill:url(#linear1);" d="M 15.875 22.742188 C 17.339844 22.742188 18.523438 23.925781 18.523438 25.386719 C 18.523438 26.847656 17.339844 28.035156 15.875 28.035156 C 14.414062 28.035156 13.230469 26.847656 13.230469 25.386719 C 13.230469 23.925781 14.414062 22.742188 15.875 22.742188 Z M 15.875 22.742188 "/>
<path style=" stroke:none;fill-rule:nonzero;fill:rgb(0%,0%,0%);fill-opacity:0.235294;" d="M 13.242188 25.140625 C 13.234375 25.222656 13.230469 25.304688 13.230469 25.386719 C 13.230469 26.855469 14.410156 28.035156 15.875 28.035156 C 17.34375 28.035156 18.523438 26.855469 18.523438 25.386719 C 18.523438 25.304688 18.519531 25.222656 18.511719 25.140625 C 18.386719 26.488281 17.257812 27.539062 15.875 27.539062 C 14.496094 27.539062 13.367188 26.488281 13.242188 25.140625 Z M 13.242188 25.140625 "/>
<path style="fill:none;stroke-width:3;stroke-linecap:round;stroke-linejoin:round;stroke:rgb(12.941177%,12.941177%,12.941177%);stroke-opacity:1;stroke-miterlimit:4;" d="M 253.975747 148.840255 C 277.411009 148.840255 296.3467 167.775947 296.3467 191.148715 C 296.3467 214.521483 277.411009 233.519669 253.975747 233.519669 C 230.602979 233.519669 211.667287 214.521483 211.667287 191.148715 C 211.667287 167.775947 230.602979 148.840255 253.975747 148.840255 Z M 253.975747 148.840255 " transform="matrix(0.062506,0,0,0.062506,0,13.438783)"/>
<path style=" stroke:none;fill-rule:nonzero;fill:url(#linear2);" d="M 15.875 2.894531 C 16.605469 2.894531 17.199219 3.488281 17.199219 4.21875 L 17.199219 5.542969 C 17.199219 6.273438 16.605469 6.867188 15.875 6.867188 C 15.144531 6.867188 14.554688 6.273438 14.554688 5.542969 L 14.554688 4.21875 C 14.554688 3.488281 15.144531 2.894531 15.875 2.894531 Z M 15.875 2.894531 "/>
<path style=" stroke:none;fill-rule:nonzero;fill:rgb(100%,100%,100%);fill-opacity:0.392157;" d="M 15.875 2.894531 C 15.144531 2.894531 14.554688 3.484375 14.554688 4.21875 L 14.554688 4.714844 C 14.554688 3.980469 15.144531 3.390625 15.875 3.390625 C 16.609375 3.390625 17.199219 3.980469 17.199219 4.714844 L 17.199219 4.21875 C 17.199219 3.484375 16.609375 2.894531 15.875 2.894531 Z M 15.875 2.894531 "/>
<path style="fill:none;stroke-width:3;stroke-linecap:round;stroke-linejoin:round;stroke:rgb(12.941177%,12.941177%,12.941177%);stroke-opacity:1;stroke-miterlimit:4;" d="M 253.975747 -168.691922 C 265.662131 -168.691922 275.161223 -159.192829 275.161223 -147.506445 L 275.161223 -126.320968 C 275.161223 -114.634584 265.662131 -105.135492 253.975747 -105.135492 C 242.289363 -105.135492 232.852764 -114.634584 232.852764 -126.320968 L 232.852764 -147.506445 C 232.852764 -159.192829 242.289363 -168.691922 253.975747 -168.691922 Z M 253.975747 -168.691922 " transform="matrix(0.062506,0,0,0.062506,0,13.438783)"/>
<path style=" stroke:none;fill-rule:nonzero;fill:url(#linear3);" d="M 15.875 4.21875 C 11.480469 4.21875 7.9375 7.757812 7.9375 12.15625 L 7.9375 19.765625 L 5.519531 23.394531 C 4.9375 24.269531 5.5625 25.441406 6.617188 25.441406 L 25.136719 25.441406 C 26.1875 25.441406 26.816406 24.269531 26.234375 23.394531 L 23.816406 19.765625 L 23.816406 12.15625 C 23.816406 7.757812 20.273438 4.21875 15.875 4.21875 Z M 15.875 4.21875 "/>
<path style=" stroke:none;fill-rule:nonzero;fill:rgb(100%,100%,100%);fill-opacity:0.392157;" d="M 15.875 4.21875 C 11.480469 4.21875 7.9375 7.757812 7.9375 12.15625 L 7.9375 12.488281 C 7.9375 8.089844 11.480469 4.550781 15.875 4.550781 C 20.273438 4.550781 23.816406 8.089844 23.816406 12.488281 L 23.816406 12.15625 C 23.816406 7.757812 20.273438 4.21875 15.875 4.21875 Z M 7.9375 19.765625 L 5.519531 23.394531 C 5.332031 23.675781 5.269531 23.988281 5.308594 24.285156 C 5.332031 24.09375 5.402344 23.902344 5.519531 23.722656 L 7.9375 20.09375 Z M 23.816406 19.765625 L 23.816406 20.09375 L 26.234375 23.722656 C 26.351562 23.902344 26.421875 24.09375 26.445312 24.285156 C 26.484375 23.988281 26.421875 23.675781 26.234375 23.394531 Z M 23.816406 19.765625 "/>
<path style=" stroke:none;fill-rule:nonzero;fill:rgb(0%,0%,0%);fill-opacity:0.235294;" d="M 5.308594 23.953125 C 5.210938 24.699219 5.777344 25.441406 6.617188 25.441406 L 25.136719 25.441406 C 25.972656 25.441406 26.542969 24.699219 26.445312 23.953125 C 26.367188 24.574219 25.847656 25.109375 25.136719 25.109375 L 6.617188 25.109375 C 5.902344 25.109375 5.386719 24.574219 5.308594 23.953125 Z M 5.308594 23.953125 "/>
<path style="fill:none;stroke-width:11.338583;stroke-linecap:round;stroke-linejoin:round;stroke:rgb(12.941177%,12.941177%,12.941177%);stroke-opacity:1;stroke-miterlimit:4;" d="M 959.908384 255.093763 C 694.185714 255.093763 479.954192 469.089087 479.954192 735.047955 L 479.954192 1195.161521 L 333.747674 1414.589397 C 298.554182 1467.497733 336.345851 1538.357112 400.119292 1538.357112 L 1519.933674 1538.357112 C 1583.470917 1538.357112 1621.498783 1467.497733 1586.305292 1414.589397 L 1440.098774 1195.161521 L 1440.098774 735.047955 C 1440.098774 469.089087 1225.867252 255.093763 959.908384 255.093763 Z M 959.908384 255.093763 " transform="matrix(0.016538,0,0,0.016538,0,0)"/>
<path style=" stroke:none;fill-rule:nonzero;fill:rgb(0%,0%,0%);fill-opacity:0.235294;" d="M 13.234375 25.550781 C 13.242188 25.664062 13.257812 25.773438 13.277344 25.882812 L 18.476562 25.882812 C 18.496094 25.773438 18.511719 25.664062 18.515625 25.550781 Z M 13.234375 25.550781 "/>
<path style=" stroke:none;fill-rule:nonzero;fill:rgb(100%,100%,100%);fill-opacity:0.196078;" d="M 13.429688 6.699219 C 13.902344 6.972656 13.84375 7.964844 13.296875 8.914062 C 12.746094 9.863281 11.917969 10.410156 11.445312 10.136719 C 10.96875 9.863281 11.027344 8.871094 11.578125 7.921875 C 12.125 6.972656 12.953125 6.425781 13.429688 6.699219 Z M 13.429688 6.699219 "/>
</g>
</svg>
